X:1
T:Title
%%score 1 2
L:1/8
Q:1/4=95
M:4/4
K:Eb
V:1 treble nm="Grand Piano, Soprano"
V:2 bass nm="Choir Pad, Give It Now"
V:1
 E[DF][EG][Ge] [Ad][Ac][GB][EG] | E[DF] [EG]6 | E[DF][EG][Ge] [Gd][Gc][Fd][Fd] | [Ec][Ec] [DB]6 | %4
w: By~Getrude~M.~Hoad * * * * * * *||||
 [B,D][CE][DF][DF] E[DF][EG][EB] | [EG]E[DF][DF] E[DF][EG][EB] | %6
w: ||
 [EG][FA][GB][Ge] [Bd][Ac][GB][EG] | [DF][DG] E2 CC B,2- | B,6 z2 |] %9
w: |||
V:2
 [E,G,][E,A,][E,B,][E,B,] [E,C][E,D][E,E][E,B,] | [E,G,][E,A,] [E,B,]2 [E,B,][E,B,] [E,B,]2 | %2
 [E,G,][E,A,][E,B,][E,B,] [E,B,][E,B,][F,B,][F,B,] | [F,=A,]F, [B,,F,]2 [B,,F,][B,,F,] [B,,F,]2 | %4
 [B,,F,][B,,F,][B,,B,][B,,A,] [B,,G,][B,,B,][E,B,][E,G,] | %5
 [E,B,][E,G,][B,,B,][B,,A,] [B,,F,][B,,B,][E,B,][E,G,] | %6
 [E,B,][E,B,][E,E][E,E] [A,E][A,E][E,E][E,B,] | [B,,A,][B,,B,] [E,G,]2 [A,,A,][A,,A,] [E,G,]2- | %8
 [E,G,]6 z2 |] %9

